src/assets/outline/VolumeCross.svg

<svg width="24" height="24" viewBox="0 0 24 24"  xmlns="http://www.w3.org/2000/svg">
<path d="M12.55 20.5901C11.76 20.5901 10.89 20.3101 10.02 19.7601L7.1 17.9301C6.9 17.8101 6.67 17.7401 6.44 17.7401H5C2.58 17.7401 1.25 16.4101 1.25 13.9901V9.99011C1.25 7.57011 2.58 6.24011 5 6.24011H6.43C6.66 6.24011 6.89 6.17011 7.09 6.05011L10.01 4.22011C11.47 3.31011 12.89 3.14011 14.01 3.76011C15.13 4.38011 15.74 5.67011 15.74 7.40011V16.5701C15.74 18.2901 15.12 19.5901 14.01 20.2101C13.57 20.4701 13.07 20.5901 12.55 20.5901ZM5 7.75011C3.42 7.75011 2.75 8.42011 2.75 10.0001V14.0001C2.75 15.5801 3.42 16.2501 5 16.2501H6.43C6.95 16.2501 7.45 16.3901 7.89 16.6701L10.81 18.5001C11.78 19.1001 12.68 19.2601 13.29 18.9201C13.9 18.5801 14.25 17.7301 14.25 16.6001V7.41011C14.25 6.27011 13.9 5.42011 13.29 5.09011C12.68 4.75011 11.77 4.90011 10.81 5.51011L7.88 7.33011C7.45 7.61011 6.94 7.75011 6.43 7.75011H5Z" />
<path d="M22 14.7099C21.81 14.7099 21.62 14.6399 21.47 14.4899L17.51 10.5299C17.22 10.2399 17.22 9.75994 17.51 9.46994C17.8 9.17994 18.28 9.17994 18.57 9.46994L22.53 13.4299C22.82 13.7199 22.82 14.1999 22.53 14.4899C22.38 14.6299 22.19 14.7099 22 14.7099Z" />
<path d="M17.9999 14.75C17.8099 14.75 17.6199 14.68 17.4699 14.53C17.1799 14.24 17.1799 13.76 17.4699 13.47L21.4299 9.50998C21.7199 9.21998 22.1999 9.21998 22.4899 9.50998C22.7799 9.79998 22.7799 10.28 22.4899 10.57L18.5299 14.53C18.3799 14.68 18.1899 14.75 17.9999 14.75Z" />
</svg>

<?xml version="1.0" encoding="UTF-8"?>
<svg width="24" height="24" viewBox="0 0 24 24" xmlns="http://www.w3.org/2000/svg">
 <path d="m12.55 20.59c-0.79 0-1.66-0.28-2.53-0.83l-2.92-1.83c-0.2-0.12-0.43-0.19-0.66-0.19h-1.44c-2.42 0-3.75-1.33-3.75-3.75v-4c0-2.42 1.33-3.75 3.75-3.75h1.43c0.23 0 0.46-0.07 0.66-0.19l2.92-1.83c1.46-0.91 2.88-1.08 4-0.46s1.73 1.91 1.73 3.64v9.17c0 1.72-0.62 3.02-1.73 3.64-0.44 0.26-0.94 0.38-1.46 0.38zm-7.55-12.84c-1.58 0-2.25 0.67-2.25 2.25v4c0 1.58 0.67 2.25 2.25 2.25h1.43c0.52 0 1.02 0.14 1.46 0.42l2.92 1.83c0.97 0.6 1.87 0.76 2.48 0.42s0.96-1.19 0.96-2.32v-9.19c0-1.14-0.35-1.99-0.96-2.32-0.61-0.34-1.52-0.19-2.48 0.42l-2.93 1.82c-0.43 0.28-0.94 0.42-1.45 0.42h-1.43z"/>
 <path d="m22 14.71c-0.19 0-0.38-0.07-0.53-0.22l-3.96-3.96c-0.29-0.29-0.29-0.76996 0-1.06s0.77-0.29 1.06 0l3.96 3.96c0.29 0.29 0.29 0.77 0 1.06-0.15 0.14-0.34 0.22-0.53 0.22z"/>
 <path d="m18 14.75c-0.19 0-0.38-0.07-0.53-0.22-0.29-0.29-0.29-0.77 0-1.06l3.96-3.96c0.29-0.29 0.77-0.29 1.06 0s0.29 0.77002 0 1.06l-3.96 3.96c-0.15 0.15-0.34 0.22-0.53 0.22z"/>
</svg>
